!! 00000] TT[WS
!!!OTL: Da jinqian diao
!!!ARE: Asia, China, Shanxi Hequ
!! Ethnic Group: Han
!! WI, 330
!!!SCT: J0398
!!!YEM: Copyright 1995, estate of Helmut Schaffrath.
**kern
*ICvox
*Ivox
*M2/4
*k[b-]
*F:
{8a
8e
8d
8c
=1
8a
8e
8d
8c
=2
8.a
16a
16c
16d
16e
16g
=3
2d}
=4
{8.cc
16dd
8f
8dd
=5
8gg
8ee
16dd
8dd
16cc
=6
8a
16a
16g
8a
8cc
=7
2dd}
=8
{8d
8e
8d
8c
=9
8g
8e
8d
8c
=10
4a
16c
16d
16e
16g
=11
2d}
=12
{8g
8g
8a
16a
16cc
=13
8g
8g
8a
16dd
16cc
=14
4.g
16a
16cc
=15
8.g
16a
8f
16e
16d
=16
8.c
16f
8d
16c
16d
=17
4.f
8e}
=18
{8.d
16f
16c
16d
16e
16g
=19
2d
=20
8.f
16d
16c
16d
8e
=21
2d}
=22
{16a
8.a
8c
8e
=23
16d
8f
16c
8.d
16c
=24
8d
8d
8.ff
16ff
=25
8cc
8ee
16dd
16ff
8cc
=26
2dd}
=27
{2a
=28
8.ff
16a
8ff
16ee
16dd
=29
8cc
8dd
4f
=30
8.aa
16ee
8dd
8cc
=31
8a
8a
8ff
16dd
16cc
=32
8g
8g
8ee
16dd
16cc}
=33
{8g
8g
8.cc
16a
=34
8g
8f
16g
16f
16g
16a
=35
2cc
=36
8.a
16cc
16a
16cc
16a
16g
=37
8f
8d
8d
8c
=38
2f}
=39
{8d
8e
8d
8c
=40
8f
8c
4d
=41
16cc
16dd
8f
8dd
8cc
=42
8a
8cc
4dd}
=43
{8f
8e
8d
8c
=44
8A
8c
4d
=45
8g
8a
8g
8a
=46
4g
8g
8a
=47
8cc
8cc
4f}
=48
{8d
16d
16c
4d
=49
8ff
8ff
4dd
=50
16cc
16dd
16ee
16cc
4dd
=51
8ff
8ff
4dd
=52
4aa
4r}
=53
{8.ff
16gg
8ee
8dd
=54
8.cc
16dd
4ff
=55
8gg
8ee
8dd
8cc
=56
8a
8a}
{16cc
16dd
16b-
16a
=57
8g
8g
8cc
16b-
16a
=58
8g
8g
8dd
16cc
16a
=59
8g
8f
16g
16f
16g
16a
=60
8.cc
16dd
16cc
16dd
8cc}
=61
{8.dd
16cc
8a
16g
16a
=62
8f
16e
16d
8.dd
16cc
=63
2f}
==
!!!AGN: Xiaodiao, Dajinqiandiao. Xinminge, Xuanchuan
!! Neue Text. Politische Liede
!!!ONB: ESAC (Essen Associative Code) Database: CHINA
!!!AMT: simple duple
!!!AIN: vox
!!!EED: Helmut Schaffrath
!!!EEV: 1.0
*-
